X:71
T:Trumpet Tune in D Major
C:Purcell, H.
M:4/4
L:1/8
Q:1/4=112
K:D
|:A2|d4 d2 A2|B4 B2 G2|A4 A2 F2|D4 D2 A2|
d4 ef g2|f2 ed c2 B2|A4 GF E2|D4 D2:|

